app/assets/images/payment_icons/bcp.svg

<svg
    xmlns="http://www.w3.org/2000/svg" width="38" height="24" role="img" viewBox="0 0 38 24" aria-labelledby="pi-bcp">
    <title id="pi-bcp">BCP</title>
    <style>.st2{fill-rule:evenodd;clip-rule:evenodd;fill:#262e61}</style>
    <path d="M35 0H3C1.3 0 0 1.3 0 3v18c0 1.7 1.4 3 3 3h32c1.7 0 3-1.3 3-3V3c0-1.7-1.4-3-3-3z" opacity=".07"/>
    <path d="M35 1c1.1 0 2 .9 2 2v18c0 1.1-.9 2-2 2H3c-1.1 0-2-.9-2-2V3c0-1.1.9-2 2-2h32" fill="#fff"/>
    <path class="st2" d="M20.8 14.6l.2-.8h.2c.9 0 1.3-.6 1.3-1 0-.5-.3-.7-1-.7-.3 0-.5 0-.8.1l-.6 2.5h.7v-.1zm.4-2.2h.2c.2 0 .4.1.4.3 0 .3-.2.5-.6.5H21l.2-.8zm-2.3 1.1c0 .4.2.6.6.6.2 0 .3 0 .6-.2l-.1.6c-.1.1-.3.1-.6.1-.6 0-1.1-.3-1.1-1.1s.5-1.5 1.4-1.5c.3 0 .6.1.8.2l-.2.4c-.2-.1-.4-.1-.5-.1-.6 0-.9.6-.9 1zm-2.2-.1h.2c.3 0 .5.1.5.3 0 .3-.3.4-.6.4h-.2l.1-.7zm1.3.4c0-.4-.3-.5-.5-.6.3 0 .6-.2.6-.6 0-.4-.4-.6-1-.6-.3 0-.5 0-.8.1l-.6 2.5h.7c1.3 0 1.6-.4 1.6-.8zm-1.1-1.4h.3c.2 0 .4.1.4.3 0 .2-.2.3-.5.3h-.2v-.6z"/>
    <path d="M22.9 12.7l.7.7-1.2 1.2.3.3 1.5-1.5-.9-.9-.4.2zm-8.8-.4l1.1 1.1-1.6 1.6.3.3 1.8-1.8-1.3-1.3-.3.1z" fill-rule="evenodd" clip-rule="evenodd" fill="#e44415"/>
    <path class="st2" d="M13.7 12.7l.7.7-1.2 1.2.3.3 1.5-1.5-1-.9-.3.2zm9.5-.4l1.1 1.1-1.6 1.6.3.3 1.8-1.8-1.3-1.3-.3.1zM15.4 9.2c-.2 0-.4.1-.5.2-.1.1-.2.3-.2.5 0 .3.2.5.5.5.1 0 .3 0 .4-.1l.1-.3c-.1.1-.2.1-.4.1-.1 0-.3-.1-.3-.3 0-.2.1-.5.4-.5.1 0 .2 0 .3.1l.1-.2c-.1.1-.3 0-.4 0zm11.3 1.3c-.2 0-.3 0-.4-.1-.1-.1-.1-.2-.1-.4s.1-.4.2-.6c.1-.1.3-.2.4-.2.2 0 .3 0 .4.1.1.1.1.2.1.3.1.4 0 .9-.6.9zm.2-1.1c-.3 0-.4.4-.4.5 0 .2.1.3.2.3s.1 0 .2-.1.2-.4.2-.5c0-.1-.1-.2-.2-.2zm-.6-.2H26l.1-.5h-.3l-.3 1.3v.1c0 .1 0 .3.3.3.1 0 .2 0 .3-.1l.1-.2c-.1 0-.1.1-.2.1s-.1-.1-.1-.1l.1-.6h.3v-.3zm-1-.4h.3l-.1.3h-.3l.1-.3zm-.1.4h.3l-.3 1.2h-.3l.3-1.2zm-13.8.2h-.3l.1-.4h.3c.2 0 .2.1.2.2.1.1-.1.2-.3.2zm-.2.8h-.3l.1-.5h.3c.2 0 .3.1.3.2.1.3-.2.3-.4.3zm.9-1c0-.2-.2-.4-.6-.4h-.6l-.4 1.6h.6c.6 0 .8-.3.8-.5 0-.1-.1-.3-.3-.3.3-.1.5-.2.5-.4zm2.4.1c-.1-.1-.2-.1-.3-.1-.2 0-.2.1-.3.1v-.1h-.3l-.3 1.2h.3l.2-.9c.1 0 .1-.1.3-.1.1 0 .2.1.2.2l-.2.8h.3l.2-.7c0-.1 0-.3-.1-.4zm1.7 1.2c-.2 0-.3 0-.4-.1-.1-.1-.1-.2-.1-.4s.1-.4.2-.6c.1-.1.3-.2.4-.2.2 0 .3 0 .4.1.1.1.1.2.1.3.1.4 0 .9-.6.9zm.2-1.1c-.3 0-.4.4-.3.5 0 .2.1.3.2.3s.1 0 .2-.1.2-.4.2-.5c-.1-.1-.2-.2-.3-.2zm1.2.6c0-.1 0-.5.5-.5h.1l-.2.7c-.1.1-.1.1-.2.1s-.2-.2-.2-.3zm1.1-1.2h-.3l-.1.4h-.1c-.2 0-.4.1-.6.2-.2.2-.3.4-.3.6 0 .3.2.5.5.5.1 0 .2-.1.3-.1v.1h.3l.3-1.7zm3.8.5s-.1-.1-.2-.1-.2.1-.2.1v-.1h-.3l-.3 1.2h.3l.2-.8c.1 0 .1-.1.2-.1s.1 0 .2.1l.1-.3zm1.5.7c0-.1 0-.5.5-.5h.1l-.2.7c-.1.1-.1.1-.2.1s-.2-.2-.2-.3zm1-1.2h-.3l-.1.4h-.1c-.2 0-.4.1-.6.2-.2.2-.3.4-.3.6 0 .3.2.5.5.5.1 0 .2-.1.3-.1v.1h.3l.3-1.7zm-1.4 0l-.3.4H23c.1-.1.2-.3.2-.4h.4zm-.6.6c.2 0 .2.1.2.2v.1h-.5c.1-.1.2-.3.3-.3zm.1-.2c.3 0 .5.2.5.4v.2h-.8v.1c0 .2.1.3.3.3.2 0 .3-.1.5-.1l-.1.3c-.2.1-.3.1-.5.1-.4 0-.5-.2-.5-.5 0-.2 0-.4.2-.6 0-.1.2-.2.4-.2zm-3.9.2c.2 0 .2.1.2.2v.1H19c0-.1.1-.3.2-.3zm.1-.2c.3 0 .5.2.5.4v.2H19v.1c0 .2.1.3.3.3.2 0 .3-.1.5-.1l-.1.3c-.2.1-.3.1-.5.1-.4 0-.5-.2-.5-.5 0-.2 0-.4.2-.6 0-.1.2-.2.4-.2zm-6.4.7s-.1 0 0 0c-.3 0-.3 0-.4.1l-.1.1c0 .1.1.1.2.1s.1 0 .2-.1l.1-.2zm.4-.3v.1l-.2.8h-.3v-.1s-.1.1-.3.1c-.2 0-.4-.1-.4-.3 0-.1 0-.2.2-.3.1-.1.2-.1.5-.1h.1v-.1-.1s-.1-.1-.2-.1-.2 0-.4.1v-.3c.2-.1.3-.1.4-.1.4 0 .6.1.6.4zm7.2.2c0 .2.2.4.4.4s.4-.1.5-.2l-.1.3c-.2.1-.3.1-.5.1-.5 0-.7-.4-.7-.7 0-.4.2-1 .9-1 .3 0 .5.1.6.2l-.1.3c0-.1-.2-.2-.4-.2-.3 0-.6.4-.6.8z"/>
</svg>

<svg xmlns="http://www.w3.org/2000/svg" xmlns:xlink="http://www.w3.org/1999/xlink" x="0px" y="0px"
	 role="img" viewBox="0 0 38 24" width="38" height="24" aria-labelledby="pi-bcp" style="enable-background:new 0 0 38 24;" xml:space="preserve">
<title id="pi-bcp">BCP</title>
<style type="text/css">
	.st0{opacity:7.000000e-02;enable-background:new    ;}
	.st1{fill:#FFFFFF;}
	.st2{fill-rule:evenodd;clip-rule:evenodd;fill:#262E61;}
	.st3{fill-rule:evenodd;clip-rule:evenodd;fill:#E44415;}
</style>
<path class="st0" d="M35,0H3C1.3,0,0,1.3,0,3v18c0,1.7,1.4,3,3,3h32c1.7,0,3-1.3,3-3V3C38,1.3,36.6,0,35,0z"/>
<path class="st1" d="M35,1c1.1,0,2,0.9,2,2v18c0,1.1-0.9,2-2,2H3c-1.1,0-2-0.9-2-2V3c0-1.1,0.9-2,2-2H35"/>
<g>
	<g>
		<path class="st2" d="M20.8,14.6l0.2-0.8c0.1,0,0.1,0,0.2,0c0.9,0,1.3-0.6,1.3-1c0-0.5-0.3-0.7-1-0.7c-0.3,0-0.5,0-0.8,0.1
			l-0.6,2.5H20.8L20.8,14.6z M21.2,12.4c0,0,0.1,0,0.2,0c0.2,0,0.4,0.1,0.4,0.3c0,0.3-0.2,0.5-0.6,0.5c-0.1,0-0.2,0-0.2,0L21.2,12.4
			L21.2,12.4z M18.9,13.5c0,0.4,0.2,0.6,0.6,0.6c0.2,0,0.3,0,0.6-0.2L20,14.5c-0.1,0.1-0.3,0.1-0.6,0.1c-0.6,0-1.1-0.3-1.1-1.1
			c0-0.8,0.5-1.5,1.4-1.5c0.3,0,0.6,0.1,0.8,0.2l-0.2,0.4c-0.2-0.1-0.4-0.1-0.5-0.1C19.2,12.5,18.9,13.1,18.9,13.5L18.9,13.5z
			 M16.7,13.4h0.2c0.3,0,0.5,0.1,0.5,0.3c0,0.3-0.3,0.4-0.6,0.4c-0.1,0-0.2,0-0.2,0L16.7,13.4L16.7,13.4z M18,13.8
			c0-0.4-0.3-0.5-0.5-0.6c0.3,0,0.6-0.2,0.6-0.6c0-0.4-0.4-0.6-1-0.6c-0.3,0-0.5,0-0.8,0.1l-0.6,2.5c0.2,0,0.4,0,0.7,0
			C17.7,14.6,18,14.2,18,13.8L18,13.8z M16.9,12.4c0,0,0.2,0,0.3,0c0.2,0,0.4,0.1,0.4,0.3c0,0.2-0.2,0.3-0.5,0.3l-0.2,0L16.9,12.4z"
			/>
		<path class="st3" d="M22.9,12.7l0.7,0.7l-1.2,1.2l0.3,0.3l1.5-1.5l-0.9-0.9L22.9,12.7L22.9,12.7z M14.1,12.3l1.1,1.1L13.6,15
			l0.3,0.3l1.8-1.8l-1.3-1.3L14.1,12.3z"/>
		<path class="st2" d="M13.7,12.7l0.7,0.7l-1.2,1.2l0.3,0.3l1.5-1.5L14,12.5L13.7,12.7L13.7,12.7z M23.2,12.3l1.1,1.1L22.7,15
			l0.3,0.3l1.8-1.8l-1.3-1.3L23.2,12.3z"/>
	</g>
	<path class="st2" d="M15.4,9.2c-0.2,0-0.4,0.1-0.5,0.2c-0.1,0.1-0.2,0.3-0.2,0.5c0,0.3,0.2,0.5,0.5,0.5h0c0.1,0,0.3,0,0.4-0.1
		l0.1-0.3c-0.1,0.1-0.2,0.1-0.4,0.1c-0.1,0-0.3-0.1-0.3-0.3l0,0c0-0.2,0.1-0.5,0.4-0.5c0.1,0,0.2,0,0.3,0.1l0.1-0.2
		C15.7,9.3,15.5,9.2,15.4,9.2L15.4,9.2z M26.7,10.5c-0.2,0-0.3,0-0.4-0.1c-0.1-0.1-0.1-0.2-0.1-0.4c0-0.2,0.1-0.4,0.2-0.6
		c0.1-0.1,0.3-0.2,0.4-0.2c0.2,0,0.3,0,0.4,0.1c0.1,0.1,0.1,0.2,0.1,0.3C27.4,10,27.3,10.5,26.7,10.5L26.7,10.5z M26.9,9.4
		c-0.3,0-0.4,0.4-0.4,0.5c0,0.2,0.1,0.3,0.2,0.3c0.1,0,0.1,0,0.2-0.1c0.1-0.1,0.2-0.4,0.2-0.5C27.1,9.5,27,9.4,26.9,9.4L26.9,9.4z
		 M26.3,9.2c-0.1,0-0.2,0-0.3,0l0.1-0.5c-0.1,0-0.2,0-0.3,0l-0.3,1.3h0c0,0,0,0.1,0,0.1c0,0.1,0,0.3,0.3,0.3c0.1,0,0.2,0,0.3-0.1
		l0.1-0.2c-0.1,0-0.1,0.1-0.2,0.1c-0.1,0-0.1-0.1-0.1-0.1v0L26,9.5c0.1,0,0.2,0,0.3,0L26.3,9.2L26.3,9.2z M25.3,8.8
		c0.1,0,0.2,0,0.3,0l-0.1,0.3c-0.1,0-0.2,0-0.3,0L25.3,8.8L25.3,8.8z M25.2,9.2c0.1,0,0.2,0,0.3,0l-0.3,1.2c-0.1,0-0.2,0-0.3,0
		L25.2,9.2L25.2,9.2z M11.4,9.4h-0.3L11.2,9c0.1,0,0.2,0,0.3,0c0.2,0,0.2,0.1,0.2,0.2C11.8,9.3,11.6,9.4,11.4,9.4L11.4,9.4z
		 M11.2,10.2c-0.1,0-0.2,0-0.3,0l0.1-0.5l0.3,0c0.2,0,0.3,0.1,0.3,0.2C11.7,10.2,11.4,10.2,11.2,10.2L11.2,10.2z M12.1,9.2
		c0-0.2-0.2-0.4-0.6-0.4c-0.2,0-0.5,0-0.6,0l-0.4,1.6c0.1,0,0.5,0,0.6,0c0.6,0,0.8-0.3,0.8-0.5c0-0.1-0.1-0.3-0.3-0.3
		C11.9,9.5,12.1,9.4,12.1,9.2L12.1,9.2z M14.5,9.3c-0.1-0.1-0.2-0.1-0.3-0.1c-0.2,0-0.2,0.1-0.3,0.1l0-0.1c-0.1,0-0.2,0-0.3,0
		l-0.3,1.2c0.1,0,0.2,0,0.3,0l0.2-0.9c0.1,0,0.1-0.1,0.3-0.1c0.1,0,0.2,0.1,0.2,0.2l-0.2,0.8c0.1,0,0.2,0,0.3,0l0.2-0.7
		C14.6,9.6,14.6,9.4,14.5,9.3L14.5,9.3z M16.2,10.5c-0.2,0-0.3,0-0.4-0.1c-0.1-0.1-0.1-0.2-0.1-0.4c0-0.2,0.1-0.4,0.2-0.6
		c0.1-0.1,0.3-0.2,0.4-0.2c0.2,0,0.3,0,0.4,0.1c0.1,0.1,0.1,0.2,0.1,0.3C16.9,10,16.8,10.5,16.2,10.5L16.2,10.5z M16.4,9.4
		c-0.3,0-0.4,0.4-0.3,0.5c0,0.2,0.1,0.3,0.2,0.3c0.1,0,0.1,0,0.2-0.1c0.1-0.1,0.2-0.4,0.2-0.5C16.6,9.5,16.5,9.4,16.4,9.4L16.4,9.4z
		 M17.6,10c0-0.1,0-0.5,0.5-0.5c0,0,0.1,0,0.1,0c0,0-0.2,0.7-0.2,0.7c-0.1,0.1-0.1,0.1-0.2,0.1C17.7,10.3,17.6,10.1,17.6,10L17.6,10
		z M18.7,8.8c-0.1,0-0.2,0-0.3,0l-0.1,0.4c0,0-0.1,0-0.1,0c-0.2,0-0.4,0.1-0.6,0.2c-0.2,0.2-0.3,0.4-0.3,0.6c0,0.3,0.2,0.5,0.5,0.5
		c0.1,0,0.2-0.1,0.3-0.1l0,0.1c0.1,0,0.2,0,0.3,0L18.7,8.8L18.7,8.8z M22.5,9.3c0,0-0.1-0.1-0.2-0.1c-0.1,0-0.2,0.1-0.2,0.1l0-0.1
		c-0.1,0-0.2,0-0.3,0l-0.3,1.2c0.1,0,0.2,0,0.3,0L22,9.6c0.1,0,0.1-0.1,0.2-0.1c0.1,0,0.1,0,0.2,0.1L22.5,9.3L22.5,9.3z M24,10
		c0-0.1,0-0.5,0.5-0.5c0,0,0.1,0,0.1,0c0,0-0.2,0.7-0.2,0.7c-0.1,0.1-0.1,0.1-0.2,0.1C24.1,10.3,24,10.1,24,10L24,10z M25,8.8
		c-0.1,0-0.2,0-0.3,0l-0.1,0.4c0,0-0.1,0-0.1,0c-0.2,0-0.4,0.1-0.6,0.2c-0.2,0.2-0.3,0.4-0.3,0.6c0,0.3,0.2,0.5,0.5,0.5
		c0.1,0,0.2-0.1,0.3-0.1l0,0.1c0.1,0,0.2,0,0.3,0L25,8.8L25,8.8z M23.6,8.8l-0.3,0.4c-0.1,0-0.2,0-0.3,0c0.1-0.1,0.2-0.3,0.2-0.4
		C23.3,8.8,23.5,8.8,23.6,8.8L23.6,8.8z M23,9.4c0.2,0,0.2,0.1,0.2,0.2c0,0,0,0,0,0.1h-0.5C22.8,9.6,22.9,9.4,23,9.4L23,9.4z
		 M23.1,9.2c0.3,0,0.5,0.2,0.5,0.4c0,0.1,0,0.2,0,0.2h-0.8c0,0,0,0,0,0.1c0,0.2,0.1,0.3,0.3,0.3c0.2,0,0.3-0.1,0.5-0.1l-0.1,0.3
		c-0.2,0.1-0.3,0.1-0.5,0.1c-0.4,0-0.5-0.2-0.5-0.5c0-0.2,0-0.4,0.2-0.6C22.7,9.3,22.9,9.2,23.1,9.2L23.1,9.2z M19.2,9.4
		c0.2,0,0.2,0.1,0.2,0.2c0,0,0,0,0,0.1H19C19,9.6,19.1,9.4,19.2,9.4L19.2,9.4z M19.3,9.2c0.3,0,0.5,0.2,0.5,0.4c0,0.1,0,0.2,0,0.2
		h-0.8c0,0,0,0,0,0.1c0,0.2,0.1,0.3,0.3,0.3c0.2,0,0.3-0.1,0.5-0.1l-0.1,0.3c-0.2,0.1-0.3,0.1-0.5,0.1c-0.4,0-0.5-0.2-0.5-0.5
		c0-0.2,0-0.4,0.2-0.6C18.9,9.3,19.1,9.2,19.3,9.2L19.3,9.2z M12.9,9.9C12.9,9.9,12.8,9.9,12.9,9.9c-0.3,0-0.3,0-0.4,0.1
		c0,0-0.1,0.1-0.1,0.1c0,0.1,0.1,0.1,0.2,0.1c0.1,0,0.1,0,0.2-0.1L12.9,9.9L12.9,9.9z M13.3,9.6c0,0,0,0.1,0,0.1l-0.2,0.8
		c-0.1,0-0.2,0-0.3,0l0-0.1c0,0-0.1,0.1-0.3,0.1c-0.2,0-0.4-0.1-0.4-0.3c0-0.1,0-0.2,0.2-0.3c0.1-0.1,0.2-0.1,0.5-0.1
		c0.1,0,0.1,0,0.1,0l0-0.1c0-0.1,0-0.1,0-0.1c0,0-0.1-0.1-0.2-0.1c-0.1,0-0.2,0-0.4,0.1l0-0.3c0.2-0.1,0.3-0.1,0.4-0.1
		C13.1,9.2,13.3,9.3,13.3,9.6L13.3,9.6z M20.5,9.8c0,0.2,0.2,0.4,0.4,0.4c0.2,0,0.4-0.1,0.5-0.2c0,0-0.1,0.3-0.1,0.3
		c-0.2,0.1-0.3,0.1-0.5,0.1c-0.5,0-0.7-0.4-0.7-0.7c0-0.4,0.2-1,0.9-1c0.3,0,0.5,0.1,0.6,0.2l-0.1,0.3C21.5,9.1,21.3,9,21.1,9
		C20.8,9,20.5,9.4,20.5,9.8z"/>
</g>
</svg>
